/* XPM */
static char * tfirelitecomponent_xpm[] = {
"24 24 5 1",
". c None",
"O c #C2410C",
"o c #F97316",
"W c #FFFFFF",
"Y c #FBBF24",
"........................",
"........................",
"..OOOOOOOOOOOOOOOOOOOO..",
"..OooooooooooooooooooO..",
"..OoooooooooooooYYoooO..",
"..OoooooooooooooYYoooO..",
"..OooooWWWWWWWWWoooooO..",
"..OooooWWWWWWWWWoooooO..",
"..OooooWWooooooooooooO..",
"..OooooWWooooooooooooO..",
"..OooooWWooooooooooooO..",
"..OooooWWWWWWWoooooooO..",
"..OooooWWWWWWWoooooooO..",
"..OooooWWooooooooooooO..",
"..OooooWWooooooooooooO..",
"..OooooWWooooooooooooO..",
"..OooooWWooooooooooooO..",
"..OooooWWooooooooooooO..",
"..OooooooooooooooooooO..",
"..OooooooooooooooooooO..",
"..OooooooooooooooooooO..",
"..OOOOOOOOOOOOOOOOOOOO..",
"........................",
"........................"};
